X:1485
T:Come under my plaidy
A:Wyresdale, Lancashire
B:E and J Winder, 1835-41
L:1/8
M:6/8
O:England
Z:Richard Robinson 
%%TUNEURL: http://www.leeds.ac.uk/music/Info/RRTuneBk/gettune/000005b4.html
%%ID:000005b4
K:E min
g | \
dBB BAB    | dBB B2g | dBB BAB | GEE E2g | \
dBB BA[BG] | dBB BAG | AAA BAB | GEE E2 ||
d | \
gfg aga | bag fed | gfg aga | bge e2g/a/ | \
bgb afa | geg dBG | AAA BAB | GEE E2 |]
